elementary-icon-theme/elementary-3.x/actions/32/help-contents.svg

<?xml version="1.0" encoding="UTF-8" standalone="no"?>
<!-- Created with Inkscape (http://www.inkscape.org/) -->

<svg
   xmlns:dc="http://purl.org/dc/elements/1.1/"
   xmlns:cc="http://creativecommons.org/ns#"
   xmlns:rdf="http://www.w3.org/1999/02/22-rdf-syntax-ns#"
   xmlns:svg="http://www.w3.org/2000/svg"
   xmlns="http://www.w3.org/2000/svg"
   xmlns:xlink="http://www.w3.org/1999/xlink"
   xmlns:sodipodi="http://sodipodi.sourceforge.net/DTD/sodipodi-0.dtd"
   xmlns:inkscape="http://www.inkscape.org/namespaces/inkscape"
   width="32px"
   height="32px"
   id="svg3952"
   version="1.1"
   inkscape:version="0.48.0 r9654"
   sodipodi:docname="help-contents.svg">
  <defs
     id="defs3954">
    <linearGradient
       inkscape:collect="always"
       xlink:href="#linearGradient4661"
       id="linearGradient3086"
       gradientUnits="userSpaceOnUse"
       x1="24.693371"
       y1="34.39452"
       x2="24.693371"
       y2="39.173557"
       gradientTransform="matrix(0.72856484,0,0,0.65275645,-1.4706345,0.32504781)" />
    <linearGradient
       id="linearGradient4661"
       inkscape:collect="always">
      <stop
         id="stop4663"
         offset="0"
         style="stop-color:#000000;stop-opacity:1;" />
      <stop
         id="stop4665"
         offset="1"
         style="stop-color:#000000;stop-opacity:0;" />
    </linearGradient>
    <linearGradient
       inkscape:collect="always"
       xlink:href="#linearGradient4661"
       id="linearGradient3089"
       gradientUnits="userSpaceOnUse"
       x1="24.693371"
       y1="12.651934"
       x2="24.693371"
       y2="31.394552"
       gradientTransform="matrix(0.74365873,0,0,0.73397563,-1.678348,-2.8768535)" />
    <linearGradient
       inkscape:collect="always"
       xlink:href="#linearGradient3707-319-631-407-324-3-8"
       id="linearGradient3893"
       x1="16.667377"
       y1="30.501629"
       x2="16.667377"
       y2="0.076143943"
       gradientUnits="userSpaceOnUse" />
    <linearGradient
       id="linearGradient3707-319-631-407-324-3-8">
      <stop
         id="stop3760-7-3"
         style="stop-color:#185f9a;stop-opacity:1;"
         offset="0" />
      <stop
         id="stop3762-8-4"
         style="stop-color:#599ec9;stop-opacity:1;"
         offset="1" />
    </linearGradient>
    <linearGradient
       inkscape:collect="always"
       xlink:href="#linearGradient4011"
       id="linearGradient3096"
       gradientUnits="userSpaceOnUse"
       gradientTransform="matrix(0.72972967,0,0,0.72972967,-36.346078,-2.5039298)"
       x1="71.204407"
       y1="6.2375584"
       x2="71.204407"
       y2="44.340794" />
    <linearGradient
       id="linearGradient4011">
      <stop
         id="stop4013"
         style="stop-color:#ffffff;stop-opacity:1;"
         offset="0" />
      <stop
         offset="0.507761"
         style="stop-color:#ffffff;stop-opacity:0.23529412;"
         id="stop4015" />
      <stop
         id="stop4017"
         style="stop-color:#ffffff;stop-opacity:0.15686275;"
         offset="0.83456558" />
      <stop
         id="stop4019"
         style="stop-color:#ffffff;stop-opacity:0.39215687;"
         offset="1" />
    </linearGradient>
    <radialGradient
       inkscape:collect="always"
       xlink:href="#linearGradient2867-449-88-871-390-598-476-591-434-148-57-177-3-8"
       id="radialGradient3099"
       gradientUnits="userSpaceOnUse"
       gradientTransform="matrix(4.5367027e-8,1.7632481,-1.8653063,0,31.761486,-11.251052)"
       cx="6.1596723"
       cy="8.4497671"
       fx="6.1596723"
       fy="8.4497671"
       r="19.99999" />
    <linearGradient
       id="linearGradient2867-449-88-871-390-598-476-591-434-148-57-177-3-8">
      <stop
         id="stop3750-8-9"
         style="stop-color:#90dbec;stop-opacity:1;"
         offset="0" />
      <stop
         id="stop3752-3-2"
         style="stop-color:#55c1ec;stop-opacity:1;"
         offset="0.26238" />
      <stop
         id="stop3754-7-2"
         style="stop-color:#3689e6;stop-opacity:1;"
         offset="0.704952" />
      <stop
         id="stop3756-9-3"
         style="stop-color:#2b63a0;stop-opacity:1;"
         offset="1" />
    </linearGradient>
    <linearGradient
       inkscape:collect="always"
       xlink:href="#linearGradient3707-319-631-407-324-3-8"
       id="linearGradient3101"
       gradientUnits="userSpaceOnUse"
       gradientTransform="matrix(0.74365873,0,0,0.74365873,-1.847808,-1.8478104)"
       x1="24"
       y1="44"
       x2="24"
       y2="3.8990016" />
    <linearGradient
       id="linearGradient8838">
      <stop
         id="stop8840"
         style="stop-color:#000000;stop-opacity:1"
         offset="0" />
      <stop
         id="stop8842"
         style="stop-color:#000000;stop-opacity:0"
         offset="1" />
    </linearGradient>
    <radialGradient
       r="10.625"
       fy="4.625"
       fx="62.625"
       cy="4.625"
       cx="62.625"
       gradientTransform="matrix(1.5058824,0,0,0.37647,-78.305888,26.258824)"
       gradientUnits="userSpaceOnUse"
       id="radialGradient3950"
       xlink:href="#linearGradient8838"
       inkscape:collect="always" />
  </defs>
  <sodipodi:namedview
     id="base"
     pagecolor="#ffffff"
     bordercolor="#666666"
     borderopacity="1.0"
     inkscape:pageopacity="0.0"
     inkscape:pageshadow="2"
     inkscape:zoom="11.197802"
     inkscape:cx="16"
     inkscape:cy="16"
     inkscape:current-layer="layer1"
     showgrid="true"
     inkscape:grid-bbox="true"
     inkscape:document-units="px"
     inkscape:window-width="1280"
     inkscape:window-height="753"
     inkscape:window-x="0"
     inkscape:window-y="24"
     inkscape:window-maximized="1" />
  <metadata
     id="metadata3957">
    <rdf:RDF>
      <cc:Work
         rdf:about="">
        <dc:format>image/svg+xml</dc:format>
        <dc:type
           rdf:resource="http://purl.org/dc/dcmitype/StillImage" />
        <dc:title />
      </cc:Work>
    </rdf:RDF>
  </metadata>
  <g
     id="layer1"
     inkscape:label="Layer 1"
     inkscape:groupmode="layer">
    <path
       inkscape:connector-curvature="0"
       style="opacity:0.3;fill:url(#radialGradient3950);fill-opacity:1;fill-rule:evenodd;stroke:none;stroke-width:0.99999988;marker:none;visibility:visible;display:inline;overflow:visible"
       id="path8836"
       d="m 31.999998,28 c 0,2.209139 -7.163445,4 -16.000001,4 C 7.1634417,32 -3.2e-6,30.209139 -3.2e-6,28 c 0,-2.209139 7.1634449,-4 16.0000002,-4 8.836556,0 16.000001,1.790861 16.000001,4 l 0,0 z" />
    <path
       inkscape:connector-curvature="0"
       style="color:#000000;fill:url(#radialGradient3099);fill-opacity:1;fill-rule:nonzero;stroke:url(#linearGradient3101);stroke-width:1;stroke-linecap:round;stroke-linejoin:round;stroke-miterlimit:4;stroke-opacity:1;stroke-dasharray:none;stroke-dashoffset:0;marker:none;visibility:visible;display:inline;overflow:visible;enable-background:accumulate"
       id="path2555-7"
       d="M 16.000001,1.499999 C 7.999402,1.499999 1.5,7.9993981 1.5,15.999999 1.5,24.0006 7.999402,30.500002 16.000001,30.5 24.000598,30.5 30.500007,24.0006 30.5,15.999999 c 0,-8.0006009 -6.499402,-14.5 -14.499999,-14.5 z" />
    <path
       inkscape:connector-curvature="0"
       style="opacity:0.5;color:#000000;fill:none;stroke:url(#linearGradient3096);stroke-width:0.99999994;stroke-linecap:round;stroke-linejoin:round;stroke-miterlimit:4;stroke-opacity:1;stroke-dasharray:none;stroke-dashoffset:0;marker:none;visibility:visible;display:inline;overflow:visible;enable-background:accumulate"
       id="path8655-6"
       d="M 29.5,15.999522 C 29.5,23.455606 23.455399,29.5 16.000171,29.5 8.5442604,29.5 2.5,23.455537 2.5,15.999522 2.5,8.5437826 8.5442604,2.5000017 16.000171,2.5000017 23.455399,2.5000017 29.5,8.5437826 29.5,15.999522 l 0,0 z" />
    <path
       inkscape:connector-curvature="0"
       style="font-size:72px;font-style:normal;font-weight:bold;fill:url(#linearGradient3893);fill-opacity:1;stroke:none;font-family:Standard Symbols L"
       id="path9053"
       d="m 16.682829,19.122662 c -0.04956,-1.769072 0.34678,-3.486463 2.018151,-4.702957 1.765395,-1.375776 3.465611,-3.097059 3.285935,-5.1260625 -0.03923,-1.9567912 -2.319181,-3.4901498 -4.77566,-3.7106197 -2.763139,-0.3827896 -6.106521,0.563802 -7.032431,2.7217069 -0.4695998,1.0495309 -0.03413,2.9325133 1.541846,2.9325133 0.92179,0 1.345172,-0.595451 1.414728,-1.14015 0.05262,-0.4121351 -0.116577,-0.7801677 -0.2165,-1.1205946 -0.113858,-0.3878941 0.372191,-1.1396747 0.901563,-1.4459783 0.442351,-0.2559555 0.905165,-0.3417811 0.973385,-0.3581768 1.588609,-0.3817838 3.172223,0.4615245 3.832935,1.487935 0.660712,1.0264095 -0.06653,2.5832737 -1.112141,4.0972647 -1.045611,1.51399 -2.167737,3.233575 -2.163254,5.060055 0,0.695342 -0.06195,0.931566 -0.01793,1.212884 0.03517,0.224765 0.779419,0.197603 1.349377,0.09218 z m -0.724992,2.381075 c -1.51896,-0.08246 -2.570293,1.639498 -1.657776,2.736619 0.81492,1.21133 3.099769,0.912304 3.491392,-0.459406 0.407146,-1.066681 -0.572657,-2.295019 -1.833615,-2.277214 l -1e-6,1e-6 z" />
    <path
       inkscape:connector-curvature="0"
       style="font-size:72px;font-style:normal;font-weight:bold;fill:#ffffff;fill-opacity:1;stroke:none;font-family:Standard Symbols L"
       id="path3298"
       d="m 16.682829,20.122661 c -0.04956,-1.769071 0.34678,-3.486462 2.018151,-4.702956 1.765395,-1.375776 3.465611,-3.097059 3.285935,-5.126062 -0.03923,-1.9567922 -2.319181,-3.4901507 -4.77566,-3.7106208 -2.763139,-0.3827895 -6.106521,0.5638021 -7.032431,2.721707 -0.4695998,1.0495318 -0.03413,2.9325138 1.541846,2.9325138 0.92179,0 1.345172,-0.595451 1.414728,-1.140149 0.05262,-0.412136 -0.116577,-0.780169 -0.2165,-1.1205957 -0.113858,-0.3878945 0.372191,-1.1396748 0.901563,-1.4459788 0.442351,-0.2559554 0.905165,-0.3417809 0.973385,-0.3581767 1.588609,-0.3817838 3.172223,0.4615244 3.832935,1.487935 0.660712,1.0264102 -0.06653,2.5832742 -1.112141,4.0972652 -1.045611,1.51399 -2.167737,3.233575 -2.163254,5.060055 0,0.695342 -0.06195,0.931566 -0.01793,1.212884 0.03517,0.224765 0.779419,0.197603 1.349377,0.09218 z m -0.724992,2.381076 c -1.51896,-0.08246 -2.570293,1.639498 -1.657776,2.736619 0.81492,1.21133 3.099769,0.912304 3.491392,-0.459406 0.407146,-1.066681 -0.572657,-2.295019 -1.833615,-2.277214 l -1e-6,1e-6 z" />
    <path
       style="font-size:72px;font-style:normal;font-weight:bold;opacity:0.1;fill:none;stroke:url(#linearGradient3089);stroke-width:1;stroke-opacity:1;font-family:Standard Symbols L"
       d="m 19.20727,9.795935 c 0.537413,1.305281 -0.240742,2.672383 -0.935673,3.759335 -1.130332,1.662823 -2.497042,3.437697 -2.382838,5.550073 -0.118806,0.497754 0.09263,0.730467 0.606054,0.541681 m 5.213555,-8.588488 C 21.893955,9.9895558 21.390282,8.898166 20.49683,8.2805036 19.03758,7.1737713 17.090926,6.9573979 15.309607,7.0776909 c -1.663761,0.1772457 -3.497852,0.7481015 -4.426642,2.2223739 -0.481882,0.8129802 -0.35624,2.1570832 0.612959,2.5569162"
       id="path4678"
       inkscape:connector-curvature="0"
       sodipodi:nodetypes="ccccccccc" />
    <path
       inkscape:connector-curvature="0"
       style="font-size:72px;font-style:normal;font-weight:bold;opacity:0.1;fill:none;stroke:url(#linearGradient3086);stroke-width:1;stroke-opacity:1;font-family:Standard Symbols L"
       d="m 15.94662,23.06953 c -0.99045,-0.0957 -1.988353,0.977203 -1.379799,1.786897 0.605467,0.86455 2.311664,0.776157 2.806176,-0.135217 0.393941,-0.824846 -0.486449,-1.697568 -1.426377,-1.65168 z"
       id="path4669" />
  </g>
</svg>

<?xml version="1.0" encoding="UTF-8" standalone="no"?>
<!-- Created with Inkscape (http://www.inkscape.org/) -->
<svg
   xmlns:svg="http://www.w3.org/2000/svg"
   xmlns="http://www.w3.org/2000/svg"
   xmlns:xlink="http://www.w3.org/1999/xlink"
   version="1.0"
   width="32"
   height="32"
   id="svg2502">
  <defs
     id="defs2504">
    <linearGradient
       id="linearGradient8838">
      <stop
         id="stop8840"
         style="stop-color:#000000;stop-opacity:1"
         offset="0" />
      <stop
         id="stop8842"
         style="stop-color:#000000;stop-opacity:0"
         offset="1" />
    </linearGradient>
    <radialGradient
       cx="62.625"
       cy="4.625"
       r="10.625"
       fx="62.625"
       fy="4.625"
       id="radialGradient2494"
       xlink:href="#linearGradient8838"
       gradientUnits="userSpaceOnUse"
       gradientTransform="matrix(1.5058824,0,0,0.37647,-78.305888,26.258824)" />
    <linearGradient
       id="linearGradient2490-182-124">
      <stop
         id="stop2788"
         style="stop-color:#1f4b6a;stop-opacity:1"
         offset="0" />
      <stop
         id="stop2790"
         style="stop-color:#4083c2;stop-opacity:1"
         offset="1" />
    </linearGradient>
    <linearGradient
       x1="18.379412"
       y1="44.980297"
       x2="18.379412"
       y2="3.0816143"
       id="linearGradient2491"
       xlink:href="#linearGradient2490-182-124"
       gradientUnits="userSpaceOnUse"
       gradientTransform="matrix(0.7126612,0,0,0.7126613,-1.1038706,-1.1038704)" />
    <linearGradient
       id="linearGradient3242-187-536">
      <stop
         id="stop2778"
         style="stop-color:#8badea;stop-opacity:1"
         offset="0" />
      <stop
         id="stop2780"
         style="stop-color:#6396cd;stop-opacity:1"
         offset="0.26238" />
      <stop
         id="stop2782"
         style="stop-color:#3b7caf;stop-opacity:1"
         offset="0.66093999" />
      <stop
         id="stop2784"
         style="stop-color:#194c70;stop-opacity:1"
         offset="1" />
    </linearGradient>
    <radialGradient
       cx="23.895569"
       cy="3.9900031"
       r="20.397499"
       fx="23.895569"
       fy="3.9900031"
       id="radialGradient2489"
       xlink:href="#linearGradient3242-187-536"
       gradientUnits="userSpaceOnUse"
       gradientTransform="matrix(0,1.7008781,-2.245129,0,24.958071,-40.236051)" />
    <linearGradient
       id="linearGradient4873">
      <stop
         id="stop4875"
         style="stop-color:#ffffff;stop-opacity:1"
         offset="0" />
      <stop
         id="stop4877"
         style="stop-color:#ffffff;stop-opacity:0"
         offset="1" />
    </linearGradient>
    <linearGradient
       x1="63.397362"
       y1="-12.489107"
       x2="63.397362"
       y2="5.4675598"
       id="linearGradient2486"
       xlink:href="#linearGradient4873"
       gradientUnits="userSpaceOnUse"
       gradientTransform="matrix(1.5436509,0,0,1.5436158,-80.015712,21.419381)" />
  </defs>
  <g
     id="layer1">
    <path
       d="M 31.999998,28 C 31.999998,30.209139 24.836553,32 15.999997,32 C 7.1634417,32 -3.2e-06,30.209139 -3.2e-06,28 C -3.2e-06,25.790861 7.1634417,24 15.999997,24 C 24.836553,24 31.999998,25.790861 31.999998,28 L 31.999998,28 z"
       id="path8836"
       style="opacity:0.3;fill:url(#radialGradient2494);fill-opacity:1;fill-rule:evenodd;stroke:none;stroke-width:0.99999988;stroke-linecap:butt;stroke-linejoin:round;marker:none;marker-start:none;marker-mid:none;marker-end:none;stroke-miterlimit:4;stroke-dasharray:none;stroke-dashoffset:0;stroke-opacity:1;visibility:visible;display:inline;overflow:visible" />
    <path
       d="M 16.000001,1.5017975 C 8.0003938,1.5017975 1.5017978,8.0003912 1.5017978,15.999999 C 1.5017978,23.999608 8.0003938,30.498205 16.000001,30.498202 C 23.999606,30.498202 30.49821,23.999608 30.498202,15.999999 C 30.498202,8.0003912 23.999606,1.5017975 16.000001,1.5017975 z"
       id="path2555"
       style="fill:url(#radialGradient2489);fill-opacity:1;stroke:url(#linearGradient2491);stroke-width:1.00365412;stroke-linecap:round;stroke-linejoin:round;stroke-miterlimit:4;stroke-dasharray:none;stroke-dashoffset:0;stroke-opacity:1" />
    <path
       d="M 29.5,15.999522 C 29.5,23.455607 23.455399,29.5 16.000172,29.5 C 8.5442598,29.5 2.5,23.455539 2.5,15.999522 C 2.5,8.5437822 8.5442598,2.5000011 16.000172,2.5000011 C 23.455399,2.5000011 29.5,8.5437822 29.5,15.999522 L 29.5,15.999522 z"
       id="path8655"
       style="opacity:0.4;fill:none;fill-opacity:1;fill-rule:nonzero;stroke:url(#linearGradient2486);stroke-width:1;stroke-miterlimit:4;stroke-dasharray:none;stroke-opacity:1" />
    <path
       d="M 16.682829,19.122662 C 16.633269,17.35359 17.029609,15.636199 18.70098,14.419705 C 20.466375,13.043929 22.166591,11.322646 21.986915,9.2936424 C 21.947682,7.3368512 19.667734,5.8034926 17.211255,5.5830227 C 14.448116,5.2002331 11.104734,6.1468247 10.178824,8.3047296 C 9.7092242,9.3542605 10.144698,11.237243 11.72067,11.237243 C 12.64246,11.237243 13.065842,10.641792 13.135398,10.097093 C 13.188023,9.6849578 13.018821,9.3169252 12.918898,8.9764983 C 12.80504,8.5886042 13.291089,7.8368236 13.820461,7.53052 C 14.262812,7.2745645 14.725626,7.1887389 14.793846,7.1723432 C 16.382455,6.7905594 17.966069,7.6338677 18.626781,8.6602782 C 19.287493,9.6866877 18.56025,11.243552 17.51464,12.757543 C 16.469029,14.271533 15.346903,15.991118 15.351386,17.817598 C 15.351386,18.51294 15.289431,18.749164 15.333452,19.030482 C 15.368623,19.255247 16.112871,19.228085 16.682829,19.122662 z M 15.957837,21.503737 C 14.438877,21.421278 13.387544,23.143235 14.300061,24.240356 C 15.114981,25.451686 17.39983,25.15266 17.791453,23.78095 C 18.198599,22.714269 17.218796,21.485931 15.957838,21.503736 L 15.957837,21.503737 z"
       id="path9053"
       style="font-size:72px;font-style:normal;font-weight:bold;opacity:0.2;fill:#000000;fill-opacity:1;stroke:none;stroke-width:0.75;stroke-linecap:round;stroke-linejoin:round;stroke-miterlimit:4;stroke-dasharray:none;stroke-opacity:1;font-family:Standard Symbols L" />
    <path
       d="M 16.682829,20.122661 C 16.633269,18.35359 17.029609,16.636199 18.70098,15.419705 C 20.466375,14.043929 22.166591,12.322646 21.986915,10.293643 C 21.947682,8.3368507 19.667734,6.8034922 17.211255,6.5830221 C 14.448116,6.2002326 11.104734,7.1468242 10.178824,9.3047291 C 9.7092242,10.354261 10.144698,12.237243 11.72067,12.237243 C 12.64246,12.237243 13.065842,11.641792 13.135398,11.097094 C 13.188023,10.684958 13.018821,10.316925 12.918898,9.9764982 C 12.80504,9.5886037 13.291089,8.8368234 13.820461,8.5305194 C 14.262812,8.274564 14.725626,8.1887385 14.793846,8.1723427 C 16.382455,7.7905589 17.966069,8.6338671 18.626781,9.6602777 C 19.287493,10.686688 18.56025,12.243552 17.51464,13.757543 C 16.469029,15.271533 15.346903,16.991118 15.351386,18.817598 C 15.351386,19.51294 15.289431,19.749164 15.333452,20.030482 C 15.368623,20.255247 16.112871,20.228085 16.682829,20.122661 z M 15.957837,22.503737 C 14.438877,22.421278 13.387544,24.143235 14.300061,25.240356 C 15.114981,26.451686 17.39983,26.15266 17.791453,24.78095 C 18.198599,23.714269 17.218796,22.485931 15.957838,22.503736 L 15.957837,22.503737 z"
       id="path3298"
       style="font-size:72px;font-style:normal;font-weight:bold;fill:#ffffff;fill-opacity:1;stroke:none;stroke-width:0.75;stroke-linecap:round;stroke-linejoin:round;stroke-miterlimit:4;stroke-dasharray:none;stroke-opacity:1;font-family:Standard Symbols L" />
  </g>
</svg>
